X:1
T:Lighter Than Air
T:Lighter Than Air
T:Bioshock Infinite
T:Gary Schyman
C:Gary Schyman
%%score { ( 1 4 ) | ( 2 3 ) }
L:1/8
Q:1/4=80
M:4/4
K:G
V:1 treble nm="Piano" snm="Pno."
V:4 treble 
V:2 treble 
V:3 treble 
V:1
!p! a4 d'4 | ba- a4 f2 | e3 d e3 B | A8 | f3 a- a4 | d'4 b4 | a3 f e3 d | e8 | f3 a- a4 | %9
 f'4 d'3 e' | d'4 b4 | a8 | d'4 ^c'2 b2 | a4 g2 f2 | e4 ^c4 | d4 b4 | d'4 ^c'2 b2 | a4 g2 f2 | %18
 (e4 d4-) | d8 |] %20
V:2
!ped! D2 A2 f2 A2!ped-up! |"_pedal simile."!ped! D2 A2 f2 A2!ped-up! |!ped! G,2 D2 B2 D2 | %3
 D,2 A,2 F2 A,2 |[K:treble] D2 A2 d2 A2 | G2 d2 g2 d2 | B,2 F2 B2 F2 | A,2 E2 ^c2 G2 | %8
 D2 A2 d2 ^C2 | B,2 F2 B2 F2 | G,2 G2 d2 G2 | D2 A2 f4 | !arpeggio![GB]8 | !arpeggio![DFd]8 | %14
 !arpeggio![A,^CG]8 |[K:bass] B,,2 B,2 F4 | G,2 D2 B4 | D,2 A,2 F4 | A,,2 E,2 ^C4 | D8!ped-up! |] %20
V:3
 x8 | x8 | x8 | x8 |[K:treble] x8 | x8 | x8 | x8 | x8 | x8 | x8 | x8 | =f2 e2 d4 | x8 | x8 | %15
[K:bass] x8 | x8 | x8 | x8 | x8 |] %20
V:4
 x8 | x8 | x8 | x8 | x8 | x8 | x8 | x8 | x8 | x8 | x8 | x8 | x8 | x8 | A8 | x8 | x8 | x8 | x8 | %19
 x8 |] %20

